X:1
T:Title
%%score [ 1 { 2 | 3 } { 4 | 5 } 6 ]
L:1/8
Q:1/4=120
M:none
K:A
V:1 treble nm="S."
V:2 treble nm="A1."
V:3 treble 
V:4 treble-8 nm="T1."
V:5 treble-8 
V:6 bass nm="B."
V:1
 A4"^Psalm 21 vv 2, 4 (adapted)" B4 z2 B4 c2"^O Lord, make thy servant, Elizabeth" d4 B2 c2 d3 d c2 B3"^William Byrd\n(1543?-1623)" E A2 | %1
w: O Lord, make thy ser- vant, E- li- za- beth our * *|
 G4 z2 e3 d c2 B2 A4 G2 A4 z2 E2 | F2 A2 G2 F2 E2 e2 d2"^- 2 -" c3 B d2 c2 B3 A2 F G2 A3 G/F/ | %3
w: Queen, to re- joice in thy * strength; give|her her heart's de- sire, and de- ny not the re- quest of her * * * *|
"^____" G2 A2 A2 B2 d2 c2 B2 A2 e4 d2 | c2 B3 B A2 B2"^- 3 -" d2 c2 B3 A c2 B2 A3 B | %5
w: * lips, give her her heart's de- sire, and de-|ny not the re- quest of her lips, of her * * *|
"^____" G2 F2 E2 z4 z2 e4 d2 c4 B2 d2 c2 B4 A4 G2 A4 z2 | %6
w: * * lips, and de- ny not the re- quest of her lips;|
 A4 B2 c4 A2 B4 c2"^- 4 -" d4 c2 B4 ^A2 B4 B4 | z2 G2 A4 B2 B2 B2 B4 A2 GF G2 A4 z2 e2 | %8
w: but pre- vent her with thine ev- er- last- ing bless- ing,|bless * ing, ev- er- last- ing bless * * ing, and|
 c2 BA e4"^- 5 -" A2 d2 c2 B3 A F2 | GA B2 B4 z8 z4 z2 e2 c2 BA e4 | %10
w: give her a long life, ev'n for ev- er and|ev * * er, and give her a long|
 A2 d4 c2 B2 A2 c2"^- 6 -" B3 A d2 c2 B3 A A4 G2 A8 | x16 x16 A8 | %12
w: life, ev'n for ev- er and ev- er, for ev- er and ev * er.|men.|
V:2
 E4 G4 z2 G4 A2 F4 E2 A2 G2 F2 E2 B,2 C4 | B,2 B3 A G2 F2 C2 E4 D2 B,2 C3 (DE)DCB, | %2
w: O Lord, make thy ser- vant, E- li- za- beth our *|Queen, to re- joice in thy strength, to re- joice in * thy * *|
w: ||
 A,2 A,2 B,2 D2 C2 B,2 A,4 z2 A4 G2 F2 E3 D F2 C2 | %3
w: strength, give her her heart's de- sire, and de- ny not the re- quest|
w: |
 DE F2 E4 ^D2 E3 B, C2 A, E2 !courtesy!^D/C/ !courtesy!^D2 | E2 E2 F2 A2 G2 F2 E2 G2 F2 E3 EFD E2 | %5
w: of her * * * lips, of * her * * * *|lips, give her her heart's de- sire, and de- ny not the re- quest|
w: ||
 B,2 C2 A,2 z4 A4 G2 F4 E3 E F2 G2 E2 FGAF=G FED C4 z2 | D4 D2 C4 C2 E4 E2 z2 A4 G2 F3 E ^D4 E4 | %7
w: of her lips, and de- ny not the re- quest of her * * * * * * * lips;|but pre- vent her with thine ev- er- last- ing bless *|
w: ||
 B,2 B,2 C EDC B,2 E,2 z2 B2 G2 FE B4 E2 A4 G2 | A2 GF E FGE F2 F3 E G2 F2 ^D2 | %9
w: ing, bless * * * * * * and give her a long life, ev'n for|ev- er and ev * * * er, ev'n for ev- er and|
w: * * * * * * * ing, * * * * * * * *||
 B,2 B,2 z2 B2 G2 FE B4 E2 A4 G2 A2 E2 E4 | F2 F2 A2 E2 F4 G4 z2 A2 G2 FE A2 E3 D B,2 C8 | %11
w: ev- er, and give her a long life, ev'n for ev- er and|ev- er, and ev * er, for ev- er and ev * * * er.|
w: ||
 D3 E F2 E3 D D4 C2 F3 =G A3 G F3 G F2 ED E8 | %12
w: A * * * * * * * * * * * * * * * men.|
w: |
V:3
 A,4 E4 z2 E4 E2 A4 G2 E2 B3 A G3 F E4 | E6 z2 A3 A G2 E2 F2 E2 E2 A,2 C2 E2 | %2
w: * Lord, make thy ser- vant, E- li- za- beth our *|Queen, to re- joice in thy * strength; * her her|
w: O * * * * * * * * * * *|* * * * * * * * give * *|
 D2 C2 E2 A4 G2 F2 E2 E2 D2 E2 EE A,4 z2 A,A, E2 | B,2 C2 A,2 E2 z4 E2 F2 A2 G2 F2 | %4
w: heart's de- sire, and de- ny not the re- quest of her lips, the re- quest|of her * lips, give her her heart's de-|
w: ||
 E2 G2 F2 E4 D2 E2 E2 D2 C2 E2 A,2 z2 | z2 A4 G2 F4 E4 z2 A,2 C2 E3 DEF =G2 F2 E3 D B,2 E4 z2 | %6
w: sire, and de- ny not the re- quest of her lips,|and de- ny not the re- quest of * her * lips, of her * lips;|
w: ||
 F4 F2 F4 F2 G4 A2 F2 F2 E3 DCB, C2 B,2 B2 G2 FE | B4 E2 A4 G2 G2 F3 E E3 ^D E3 A, C2 B,4 | %8
w: but pre- vent her with thine ev- er- last- ing bless * * ing, and give her a|long life, ev'n for ev- er and ev * * * * *|
w: ||
 E4 z4 z2 B2 G2 FE B4 | E2 G4 F2 E2 A,2 D2 E3 C D2 B,4 A,2 A2 G2 FE | %10
w: er, and give her a long|life, ev'n for ev- er and ev * * * er, and give her a|
w: ||
 A4 E2 A3 G F3 E E4 ^D2 E2 B,2 E8 E8 | F3 =G A3 G F3 G F2 E2 D2 F4 E3 D D4 CB, C8 | %12
w: long life, ev'n for ev- er and ev- er, and ev- er.|A * * * * * * * * * * * * * * men.|
w: ||
V:4
 c4 B4 z2 B4 A2 A2 F2 G2 A2 B2 F2 G2 G2 A4 | z2 G3 A B2 c2 e3 d c2 B2 B2 A4 A3 G | %2
w: O Lord, make thy ser * vant, E- li- za- beth our Queen,|our * * Queen, to re- joice in thy strength, in thy|
"^_____" F4 E2 z4 E2 F2 A2 G2 F2 E2 e2 d2 c2 B2 A3 A | D2 A3 A E2 AA G2 E2 A4 E2 B2 | %4
w: * strength; give her her heart's de- sire, and de- ny not the re-|request of her lips, the re- quest of her lips, give|
 c2 e2 d2 c2 B2 B2 G4 A4 B2 d2 c2 | B2 A2 e4 d2 c4 B2 A4 A2 B2 A2 GABcdB c2 B4 A4 z2 | %6
w: her her heart's de- sire, de- sire, give her her heart's|de- sire, and de- ny not the re- quest of her * * * * * * * lips;|
 F4 B2 A4 A2 z2 B2 A2 A3 B c2 G2 A2 F2 F4 z2 B2 | G2 FE A4 E2 e4 ^d2 c4 B2 B2 A3 FGA B2 | %8
w: but pre- vent her with thine ev- er- last- ing bless * ing, and|give her a long life, ev'n for ev- er and ev- er, * * *|
 A3 B c2 B2 c2 z4 e2 ^d2 cB | e4 ^d2 dd e2 =dcBA B2 A4 z2 B2 e2 dc B2 c2 | %10
w: and ev * * er, and give her a|long life, ev'n for ev- er and ev * * er, and give her a long life,|
 de f2 e2 e2 d2 d2 z2 e2 c2 BA e4 A2 c2 B4 A8 | A4 d2 cB d2 ABcdec d3 c/B/ A2 E2 F2 D2 A2 E2 A8 | %12
w: ev'n for ev- er and ev- er, and give her a long life for ev- er.|A * * * * * * * * * * * * * * * * * * * men.|
V:5
 c4 B4 z2 B4 A2 A2 F2 G2 A2 B2 F2 G2 G2 A4 | z2 G3 A B2 c2 e3 d c2 B2 B2 A4 A3 G | %2
w: O Lord, make thy ser * vant, E- li- za- beth our Queen,|our * * Queen, to re- joice in thy strength, in thy|
"^_____" F4 E2 z8 z4 z2 E4 F2 A2 G2 F2 E2 | d4 c2 B2 A2 G2 E2 A2 AA E2 B2 | %4
w: * strength; give her her heart's de- sire,|and de- ny not the re- quest of her lips, give|
 c2 e2 d2 c2 B2 B2 G4 A4 B2 d2 c2 | B2 A2 e4 d2 c4 B2 A4 A2 B2 A2 GABcdB c2 B4 A4 z2 | %6
w: her her heart's de- sire, de- sire, give her her heart's|de- sire, and de- ny not the re- quest of her * * * * * * * lips;|
 F4 B2 A4 A2 z2 B2 A2 A3 B c2 G2 A2 F2 F4 z4 | z2 e2 c2 BA e4 B4 z4 z2 B2 cd e3 d B2 | %8
w: but pre- vent her with thine ev- er- last- ing bless * ing,|and give her a long life, for ev- er and ev *|
 c4 z2 E2 A2 F2 GA B2 B4 | z8 z4 z2 e2 c2 BA e4 E2 EF G2 AA | %10
w: er, ev'n for ev- er and ev- er,|and give her a long life, ev'n for ev- er and|
 A3 B c BAG F2 A2 G2 FE A2 F2 G2 G2 E3 F G2 E2 E8 | F6 =G2 A8 A3 !courtesy!=G F2 A3 DFEF^G A2 E8 | %12
w: ev * * * * * er, for ev- er and ev * er, for ev- er and ev- er.|A * * * * * * * * * * * * men.|
V:6
 A,4 E,4 z2 E,4 A,2 D,4 E,2 C,2 B,,3 B,, E,3 D, C,2 A,,2 | %1
w: O Lord, make thy ser- vant, E- li- za- beth our * *|
"^This edition  Andrew Sims 2012" E,4 E,3 E, A,2 A,,2 E,3 C, D,2 E,2 A,,8 | %2
w: Queen, to re- joice in thy * * * strength;|
 z16 z8 A,,4 B,,2 D,2 C,2 | B,,2 A,,2 A,2 G,2 F,3 E,G,G, F,2 C2 B,4 | %4
w: give her her heart's|de- sire, and de- ny not the re- quest of her|
 E,4 z8 E,4 F,2 A,2 G,2 F,2 E,2 | D4 C2 B,4 A,4 E,2 F,2 A,4 G,2 F,2 E,4 D,2 C,2 E,4 A,,4 z2 | %6
w: lips, give her her heart's de- sire,|and de- ny not the re- quest of her lips, of her * lips;|
 D,4 B,,2 F,4 F,2 E,4 A,2 D,3 D, E,2 E,2 F,4 B,,4 E,4 | E,4 z16 z2 E,2 C,2 B,,A,, E,4 | %8
w: but pre- vent her with thine ev- er- last- ing bless- ing, bless-|ing, and give her a long|
 A,,2 A,4 G,2 F,2 B,,B,, E,4 B,,2 B,2 | G,2 F,E, B,4 E,2 A,4 G,2 A,2 G,F,E,D, E,2 A,,4 z2 A,2 | %10
w: life, ev'n for ev- er and ev- er, and|give her a long life, ev'n for ev- er and ev * * ver, and|
 F,2 E,D, A,4 D,4 E,2 E,2 F,4 E,2 E,2 C,2 B,,A,, E,4 A,,8 | %11
w: give her a long life, ev'n for ev- er, for ev- er and ev- er.|
 D,6 E,2 F,2 D,2 A,3 =G,F,E, D,3 A,,B,,C, D,4 A,,12 | %12
w: A * * * * * * * * * * * * men.|

